build/images/user.svg

<svg width="24" height="24" viewBox="0 0 24 24" fill="none" xmlns="http://www.w3.org/2000/svg">
<circle cx="12" cy="7" r="6" fill="#CCB48A"/>
<path fill-rule="evenodd" clip-rule="evenodd" d="M23 24C23 17.9249 18.0751 13 12 13C5.92487 13 1 17.9249 1 24H23Z" fill="#CCB48A"/>
<path d="M20.4853 15.5147C19.1783 14.2077 17.6226 13.2402 15.9253 12.6545C17.7432 11.4024 18.9375 9.30694 18.9375 6.9375C18.9375 3.11217 15.8253 0 12 0C8.17467 0 5.0625 3.11217 5.0625 6.9375C5.0625 9.30694 6.25683 11.4024 8.07478 12.6545C6.37744 13.2402 4.82175 14.2077 3.51473 15.5147C1.24823 17.7812 0 20.7947 0 24H1.875C1.875 18.417 6.41705 13.875 12 13.875C17.583 13.875 22.125 18.417 22.125 24H24C24 20.7947 22.7518 17.7812 20.4853 15.5147ZM12 12C9.20855 12 6.9375 9.729 6.9375 6.9375C6.9375 4.146 9.20855 1.875 12 1.875C14.7915 1.875 17.0625 4.146 17.0625 6.9375C17.0625 9.729 14.7915 12 12 12Z" fill="#2C2B2B"/>
</svg>

<svg width="24" height="24" viewBox="0 0 24 24" fill="none" xmlns="http://www.w3.org/2000/svg"><circle cx="12" cy="7" r="6" fill="#CCB48A"/><path fill-rule="evenodd" clip-rule="evenodd" d="M23 24c0-6.075-4.925-11-11-11S1 17.925 1 24h22z" fill="#CCB48A"/><path d="M20.485 15.515a11.954 11.954 0 00-4.56-2.86 6.935 6.935 0 003.012-5.717A6.945 6.945 0 0012 0a6.945 6.945 0 00-6.938 6.938 6.935 6.935 0 003.013 5.717 11.954 11.954 0 00-4.56 2.86A11.922 11.922 0 000 24h1.875c0-5.583 4.542-10.125 10.125-10.125S22.125 18.417 22.125 24H24c0-3.205-1.248-6.219-3.515-8.485zM12 12a5.068 5.068 0 01-5.063-5.063A5.068 5.068 0 0112 1.875a5.068 5.068 0 015.063 5.063A5.068 5.068 0 0112 12z" fill="#2C2B2B"/></svg>
